X: 120
T: REEL: Cooley's
C: C: Trad.; S: Joe Cooley
C: Set Leaders: Olya, Vova
Z: Anton Zille ed., Oleg Naumov arr.; ceolachan at The Session
N: https://thesession.org/members/26966/sets/92367
R: Reel
M: 4/4
L: 1/8
Q: 1/2=100
K: Edor
|:"Em"EBBA B/c/B EB|"Em"~B2 A/B/c dBAG|"D"FDAD BDAG|"D"FDFA dAFD|
"Em"EBBA ~B2 EB|"C"BA A/B/c defg|"Am"afef dBAF|1 "D"DEFD "Em"E/F/E ED:|2 "D"DEFD "Em"E3f||
|:"Em"eB~B2 eBfB|"Em"eB~B2 gedB|"D"A/B/A FA DAFA|"D"A/B/A FA defd|
"Em"eB B/c/B eBgf|"C"eB~B2 defg|"Am"afef dBAF|1 "D"DEFD "Em"E2 ef:|2 "D"DEFD "Em"E3D||

